build/images/house.svg

<svg width="16" height="16" viewBox="0 0 16 16" fill="none" xmlns="http://www.w3.org/2000/svg">
<path d="M15.8627 7.1665L9.18872 0.492432C8.87146 0.174927 8.44934 0 8 0C7.55066 0 7.12854 0.174927 6.81152 0.49231L0.137329 7.1665C0.0493164 7.25439 0 7.37366 0 7.49805C0 7.62231 0.0494385 7.74158 0.137451 7.82959C0.137451 7.82959 0.363037 8.05493 0.639526 8.33142C1.17004 8.86206 1.90076 8.98718 2.5105 8.80786V15.5312C2.5105 15.7902 2.72034 16 2.97925 16H13.0209C13.2797 16 13.4896 15.7902 13.4896 15.5312V8.80786C14.0992 8.98718 14.8301 8.86206 15.3604 8.33142C15.637 8.05493 15.8625 7.82959 15.8625 7.82959C15.9504 7.74158 16 7.62244 16 7.49805C16 7.37366 15.9507 7.25439 15.8627 7.1665ZM12.5521 8.19421V13.0542H10.4771V10.0083C10.4771 8.64026 9.37061 7.53125 8 7.53125C6.63171 7.53125 5.52295 8.6377 5.52295 10.0083V13.0542H3.44788V8.19421L8 3.64209L12.5521 8.19421ZM3.44788 13.9917H5.52295V15.0625H3.44788V13.9917ZM6.46045 15.0625V10.0083C6.46045 9.15967 7.14636 8.46875 8 8.46875C8.85046 8.46875 9.53955 9.15649 9.53955 10.0083V15.0625H6.46045ZM10.4771 15.0625V13.9917H12.5521V15.0625H10.4771ZM14.6974 7.66858C14.3262 8.04004 13.7244 8.04053 13.3525 7.66858C13.3496 7.66565 13.3464 7.6626 13.3434 7.65967L8.33142 2.64771C8.14844 2.4646 7.85156 2.4646 7.66858 2.64771L2.65662 7.65967C2.65344 7.6626 2.65039 7.66553 2.64746 7.66858C2.27612 8.04004 1.67432 8.04065 1.30249 7.66858C1.24268 7.60864 1.18518 7.55115 1.13184 7.4978L7.47461 1.15503C7.76416 0.865112 8.23511 0.86438 8.52563 1.15515L14.8682 7.4978C14.8148 7.55115 14.7573 7.60864 14.6974 7.66858Z" fill="#777777"/>
</svg>

<svg width="16" height="16" fill="none" xmlns="http://www.w3.org/2000/svg"><path d="M15.863 7.167L9.189.492A1.67 1.67 0 008 0c-.45 0-.871.175-1.188.492L.137 7.167a.468.468 0 000 .663l.503.501c.53.531 1.26.656 1.87.477v6.723c0 .26.21.469.47.469h10.04c.26 0 .47-.21.47-.469V8.808c.61.18 1.34.054 1.87-.477l.503-.501a.47.47 0 000-.663zm-3.31 1.027v4.86h-2.076v-3.046A2.475 2.475 0 008 7.531a2.475 2.475 0 00-2.477 2.477v3.046H3.448v-4.86L8 3.642l4.552 4.552zm-9.105 5.798h2.075v1.07H3.448v-1.07zm3.012 1.07v-5.054a1.538 1.538 0 113.08 0v5.055H6.46zm4.017 0v-1.07h2.075v1.07h-2.075zm4.22-7.393a.95.95 0 01-1.345 0l-.009-.01-5.012-5.011a.469.469 0 00-.662 0L2.657 7.66a.95.95 0 01-1.354.009l-.171-.171 6.343-6.343c.29-.29.76-.29 1.05 0l6.343 6.343-.17.17z" fill="#777"/></svg>
